frontend-m/src/assets/images/svg/img-upload-none.svg

<?xml version="1.0" encoding="UTF-8"?>
<svg width="65px" height="65px" viewBox="0 0 65 65" version="1.1" xmlns="http://www.w3.org/2000/svg" xmlns:xlink="http://www.w3.org/1999/xlink">
    <!-- Generator: Sketch 62 (91390) - https://sketch.com -->
    <title>07.이미지/컨텐츠이미지(업로드) copy</title>
    <desc>Created with Sketch.</desc>
    <defs>
        <filter x="0.0%" y="0.0%" width="100.0%" height="100.0%" filterUnits="objectBoundingBox" id="filter-1">
            <feGaussianBlur stdDeviation="0" in="SourceGraphic"></feGaussianBlur>
        </filter>
    </defs>
    <g id="07.이미지/컨텐츠이미지(업로드)-copy" stroke="none" stroke-width="1" fill="none" fill-rule="evenodd">
        <g id="Group">
            <rect id="Rectangle" fill="#F7F7F7" x="0" y="0" width="65" height="65"></rect>
            <path d="M21.8897869,35.9624358 C21.8024396,35.8930884 21.5944608,35.6849202 21.5246082,35.5970676 C21.3391136,35.3638257 21.2129874,35.1367733 21.1288611,34.8849629 C20.8699771,34.1095741 21.0032402,33.0921644 21.5099556,31.9755337 C21.9437868,31.0195765 22.6131968,30.071451 23.7811117,28.7583362 C23.9531536,28.5650732 24.4654901,28 24.4687743,28 C24.4699743,28 24.4421217,28.0483789 24.4069427,28.107242 C24.1032798,28.6159153 23.8434485,29.2150306 23.7019117,29.733746 C23.4744803,30.5660401 23.501954,31.280229 23.7821853,31.8341233 C23.9755747,32.2156598 24.307027,32.5461016 24.6797846,32.7288173 C25.3322683,33.0485854 26.287657,33.0749854 27.4543087,32.8062488 C27.5346455,32.7876172 31.5149792,31.7309865 36.2995017,30.4581665 C41.0840873,29.1851569 44.9993684,28.1445051 45,28.1453262 C45.0013263,28.146463 33.8840931,32.903575 28.1129819,35.371531 C27.1990247,35.7622254 26.9546039,35.8609411 26.5249411,36.0118252 C25.426563,36.3975301 24.4426901,36.5815721 23.6474065,36.5499932 C22.9322702,36.5215722 22.3472391,36.3259091 21.8897869,35.9624358 Z" id="Fill-1" fill="#000000" opacity="0.0799999982" filter="url(#filter-1)"></path>
        </g>
    </g>
</svg>

<svg xmlns="http://www.w3.org/2000/svg" width="65" height="65" viewBox="0 0 65 65">
    <defs>
        <filter id="hrwsiwhena" width="100%" height="100%" x="0%" y="0%" filterUnits="objectBoundingBox">
            <feGaussianBlur in="SourceGraphic"/>
        </filter>
    </defs>
    <g fill-rule="evenodd">
        <path d="M0 0H65V65H0z" opacity=".05"/>
        <path d="M21.89 35.962c-.088-.069-.296-.277-.365-.365-.186-.233-.312-.46-.396-.712-.259-.775-.126-1.793.381-2.91.434-.955 1.103-1.904 2.271-3.217.172-.193.684-.758.688-.758l-.062.107c-.304.509-.564 1.108-.705 1.627-.228.832-.2 1.546.08 2.1.194.382.525.712.898.895.652.32 1.608.346 2.774.077.08-.018 4.061-1.075 8.846-2.348 4.784-1.273 8.7-2.313 8.7-2.313.001.001-11.116 4.759-16.887 7.227-.914.39-1.158.489-1.588.64-1.098.386-2.082.57-2.878.538-.715-.028-1.3-.224-1.757-.588z" filter="url(#hrwsiwhena)" opacity=".08"/>
    </g>
</svg>
